X:1
T: A Trip to Castle Howard
N:
C:
S: Play  3  times
A:
O:
R:
M:4/4
K:G
I:speed 250
%W: A1
% voice 1 (1 lines, 27 notes)
K:G
M:4/4
L:1/16
G8 G6 G2 |G8 e2 d2 c2 B2 |A8 A6 A2 |A8 f2 e2 d2 c2 |d8 d6 d2 |d8 a8 |a4 b4 c'4 a4 |b8 g8 |
%W: A2
% voice 1 (1 lines, 27 notes)
G8 G6 G2 |G8 e2 d2 c2 B2 |A8 A6 A2 |A8 f2 e2 d2 c2 |d8 d6 d2 |d8 a8 |a4 b4 c'4 a4 |b8 g8 |
%W: B1
% voice 1 (1 lines, 21 notes)
g12 B4 |B4 A4 A8 |a12 c4 |c4 B4 B8 |d8 d6 d2 |d12 c4 |A4 B4 c4 A4 |B8 G8 |
%W: B2
% voice 1 (1 lines, 21 notes)
g12 B4 |B4 A4 A8 |a12 c4 |c4 B4 B8 |d8 d6 d2 |d12 c4 |A4 B4 c4 A4 |B8 G8 |
%W: C1
% voice 1 (1 lines, 23 notes)
E4 G4 B4 e4 |e8 ^d8 |B4 ^d4 f4 a4 |a8 g8 |b4 g4 f4 e4 |c'4 a4 g4 f4 |e8 ^d8 |e16 |
%W: C2
% voice 1 (1 lines, 23 notes)
E4 G4 B4 e4 |e8 ^d8 |B4 ^d4 f4 a4 |a8 g8 |b4 g4 f4 e4 |c'4 a4 g4 f4 |e8 ^d8 |e16 |
%W: D1
% voice 1 (1 lines, 22 notes)
g12 d4 |d8 c4 B4 |A4 B4 c4 d4 |c8 B8 |d8 d8 |d8 e4 d4 |d4 c4 B4 A4 |B8 A8 |
%W: D2
% voice 1 (1 lines, 19 notes)
d8 d8 |d8 e4 f4 |g8 g8 |g16 |g4 f4 e4 d4 |c4 B4 A4 G4 |B8 A8 |G16 ||
